public/images/hashed/4b7fde877284ec85457afd37e4da2191.svg

<?xml version="1.0" encoding="UTF-8"?>
<svg width="80px" height="80px" viewBox="0 0 80 80" version="1.1" xmlns="http://www.w3.org/2000/svg" xmlns:xlink="http://www.w3.org/1999/xlink">
    <!-- Generator: Sketch 64 (93537) - https://sketch.com -->
    <title>Icon-Architecture/64/Arch_Amazon-Codestar_64</title>
    <desc>Created with Sketch.</desc>
    <defs>
        <linearGradient x1="0%" y1="100%" x2="100%" y2="0%" id="linearGradient-1">
            <stop stop-color="#2E27AD" offset="0%"></stop>
            <stop stop-color="#527FFF" offset="100%"></stop>
        </linearGradient>
    </defs>
    <g id="Icon-Architecture/64/Arch_Amazon-Codestar_64" stroke="none" stroke-width="1" fill="none" fill-rule="evenodd">
        <g id="Icon-Architecture-BG/64/Developer-Tools" fill="url(#linearGradient-1)">
            <rect id="Rectangle" x="0" y="0" width="80" height="80"></rect>
        </g>
        <path d="M62.9498188,34.8061436 C64.9194551,33.6712431 65.597543,31.1484703 64.4601053,29.1832273 C63.9092832,28.2308633 63.018423,27.5493277 61.9545608,27.2646105 C61.5996087,27.1693741 61.238691,27.122748 60.8807561,27.122748 C60.1658805,27.122748 59.4599533,27.3092526 58.8246188,27.6763096 C57.8701256,28.225903 57.1860722,29.1137841 56.9007186,30.1762653 C56.6163591,31.2377544 56.7615216,32.3468618 57.313338,33.2992258 C58.4507756,35.2644688 60.9811767,35.9420362 62.9498188,34.8061436 L62.9498188,34.8061436 Z M65.5100478,39.0163865 L66.5043114,40.73461 L61.6741785,43.5163068 L60.4701252,37.3130436 C58.5094372,37.1761413 56.6461871,36.1136601 55.5912733,34.2912718 C54.7739885,32.8805825 54.5582333,31.2357703 54.9798011,29.6613935 C55.4033575,28.0880086 56.4155179,26.7725558 57.8303551,25.9580861 C59.2422095,25.1436164 60.8897044,24.9253663 62.4695894,25.3479778 C64.0474859,25.7695973 65.3658795,26.7795001 66.18217,28.1911814 C67.867447,31.1038282 66.8642349,34.8428493 63.9440825,36.5243671 L63.9440825,36.5243671 C63.4678302,36.7991638 62.9687098,37.0015412 62.4606411,37.1364595 L63.0949813,40.4062428 L65.5100478,39.0163865 Z M58.5601446,51.0340307 C57.6046572,50.4834452 56.4940647,50.3376145 55.4302026,50.6223317 C54.3653462,50.9070488 53.4754802,51.5885844 52.9246581,52.5409485 C52.1471439,53.8841786 52.2346391,55.4793885 52.9863024,56.7234141 L53.8413692,57.7065316 L53.8214839,57.7243884 C54.010394,57.8850998 54.2122296,58.0368829 54.4349446,58.1648568 L54.4349446,58.1638647 C55.390432,58.7144502 56.5020188,58.860281 57.5648867,58.5755638 C58.6287488,58.2908466 59.5196091,57.6093111 60.0704312,56.656947 C61.2078688,54.691704 60.529781,52.1689312 58.5601446,51.0340307 L58.5601446,51.0340307 Z M61.7924959,57.6489929 C60.9762054,59.0606742 59.6568175,60.070577 58.0799153,60.4921965 C57.5529555,60.633067 57.0180417,60.7025102 56.4871049,60.7025102 C55.428214,60.7025102 54.3822487,60.4257294 53.4406809,59.8830803 L53.4406809,59.8820883 C53.0201074,59.6410211 52.64527,59.3523357 52.3062261,59.032897 L50.8784634,60.2679941 L53.2925357,61.6568584 L52.298272,63.376074 L47.4651562,60.5933852 L51.1011785,57.4495917 C50.152651,55.6559726 50.1128804,53.4308137 51.2025934,51.5489025 C52.0188839,50.1372212 53.3372775,49.1283105 54.915174,48.706691 C56.4940647,48.2830874 58.1405654,48.5013375 59.5544083,49.3158072 C60.9692455,50.1302769 61.9804117,51.4457298 62.4029738,53.0201066 C62.8255358,54.5944835 62.6087863,56.2383036 61.7924959,57.6489929 L61.7924959,57.6489929 Z M40.1404157,61.8989176 C40.1404157,59.6281245 38.2881025,57.780935 36.0132272,57.780935 C33.7383519,57.780935 31.8870329,59.6281245 31.8870329,61.8989176 C31.8870329,64.1687187 33.7383519,66.0159082 36.0132272,66.0159082 C38.2881025,66.0159082 40.1404157,64.1687187 40.1404157,61.8989176 L40.1404157,61.8989176 Z M42.1289431,61.8989176 C42.1289431,65.2629453 39.3857696,68 36.0132272,68 C32.641679,68 29.8985055,65.2629453 29.8985055,61.8989176 C29.8985055,61.4257117 29.9571671,60.9673865 30.0605705,60.524934 L27.4973587,59.639037 L27.4973587,62.6280714 L25.5088314,62.6280714 L25.5088314,56.85238 L30.8221765,58.6896491 C31.9019468,56.9565448 33.82187,55.7968432 36.0132272,55.7968432 C39.3857696,55.7968432 42.1289431,58.5338979 42.1289431,61.8989176 L42.1289431,61.8989176 Z M22.7596923,45.9716204 C22.2088702,45.0192563 21.3190042,44.3377208 20.2551421,44.0530036 C19.1912799,43.7692785 18.0806874,43.9141172 17.1242057,44.4647027 C16.1697126,45.0142961 15.4876477,45.9021772 15.2022941,46.9646584 C14.9159461,48.0261475 15.0630971,49.1352548 15.6149135,50.0876189 C16.1647413,51.039983 17.0556016,51.7215185 18.1194637,52.0062357 C19.1813373,52.2909529 20.2939184,52.1461142 21.2504,51.5945367 C23.2200364,50.4596361 23.8981242,47.9368634 22.7596923,45.9716204 L22.7596923,45.9716204 Z M22.2446637,53.3127602 C21.3021017,53.8564014 20.2571306,54.1331822 19.1972455,54.1331822 C18.6663087,54.1331822 18.1313949,54.063739 17.6054294,53.9228684 C16.0275329,53.5012489 14.708145,52.4913462 13.8918545,51.0796648 C13.075564,49.6689755 12.8578203,48.0251555 13.2813766,46.4507786 C13.7039387,44.8764017 14.7151048,43.5609488 16.1299421,42.7464791 L16.1299421,42.7454871 C16.41629,42.5808075 16.7135748,42.4478733 17.0168253,42.3318039 L16.4003818,39.1602331 L13.9962522,40.5481054 L13,38.8308739 L17.8211846,36.047193 L18.9635936,41.9320094 C19.5641288,41.9101844 20.1726182,41.9776435 20.7691764,42.1363709 C22.3470729,42.5579904 23.6654665,43.5678931 24.4827512,44.9795745 C26.1680282,47.8922213 25.1638219,51.6312424 22.2446637,53.3127602 L22.2446637,53.3127602 Z M24.176518,22.5662811 L24.176518,22.5662811 C23.5292524,22.1932718 22.8203424,22.0156956 22.121375,22.0156956 C20.6936124,22.0156956 19.3036317,22.7537777 18.5400372,24.0731988 C17.9882209,25.0255629 17.8430584,26.1346702 18.1274178,27.1971514 C18.4127715,28.2586405 19.0968249,29.1465216 20.051318,29.6961151 C21.0048169,30.2467006 22.1164037,30.3935234 23.1812601,30.1078141 C24.2451222,29.823097 25.1359825,29.1425535 25.6858103,28.1901894 C26.8242422,26.2239544 26.1461544,23.7011816 24.176518,22.5662811 L24.176518,22.5662811 Z M27.3641274,23.0136938 C28.4548347,24.8499708 28.5522725,27.2050878 27.4088693,29.1822353 C26.5925788,30.5929246 25.2731909,31.6028273 23.6962887,32.0244468 C23.1693289,32.1653174 22.6344151,32.2347606 22.1034783,32.2347606 C21.0445874,32.2347606 19.998622,31.9569877 19.0570543,31.4153307 C17.6422171,30.5998689 16.6300567,29.284416 16.2065004,27.7110312 C15.7839383,26.1366543 16.0006878,24.4928342 16.8179725,23.0811529 C18.5042437,20.167514 22.2516235,19.1655477 25.1707817,20.8480575 L25.1707817,20.8480575 C25.5008773,21.0385304 25.8021392,21.2577725 26.0825215,21.4958635 L28.6198824,19.2974898 L26.2127701,17.9076334 L27.2090223,16.1894099 L32.0252355,18.9720987 L27.3641274,23.0136938 Z M47.4562079,18.1020744 C47.4562079,15.8322734 45.6048889,13.9840918 43.3290193,13.9840918 C41.054144,13.9840918 39.2018308,15.8322734 39.2018308,18.1020744 C39.2018308,20.3728675 41.054144,22.219065 43.3290193,22.219065 C45.6048889,22.219065 47.4562079,20.3728675 47.4562079,18.1020744 L47.4562079,18.1020744 Z M53.8334151,22.6992152 L48.7358252,20.945278 C47.7087508,22.8807596 45.6715045,24.2031568 43.3290193,24.2031568 C39.9564769,24.2031568 37.2133034,21.4661021 37.2133034,18.1020744 C37.2133034,14.7380467 39.9564769,12 43.3290193,12 C46.7005675,12 49.4447352,14.7380467 49.4447352,18.1020744 C49.4447352,18.4294496 49.4119245,18.7478963 49.3612171,19.0613828 L51.8448877,19.9165264 L51.8448877,17.3719286 L53.8334151,17.3719286 L53.8334151,22.6992152 Z M44.0041244,32.6256267 L42.1826333,31.8290138 L35.1770514,47.7493667 L36.9985425,48.5469716 L44.0041244,32.6256267 Z M51.5635111,40.2207302 L45.8226326,34.6265833 L44.4346405,36.046201 L48.5141044,40.022321 L43.9524226,43.4379351 L45.1465333,45.0242165 L51.5635111,40.2207302 Z M33.4549867,44.2662935 L27.7151025,38.6731386 L34.1320803,33.8686602 L35.3261909,35.4559337 L30.7635149,38.8705557 L34.8429788,42.8466758 L33.4549867,44.2662935 Z" id="Amazon-Codestar_Icon_64_Squid" fill="#FFFFFF"></path>
    </g>
</svg>

<svg xmlns="http://www.w3.org/2000/svg" width="80" height="80"><defs><linearGradient id="a" x1="0%" x2="100%" y1="100%" y2="0%"><stop offset="0%" stop-color="#2E27AD"/><stop offset="100%" stop-color="#527FFF"/></linearGradient></defs><g fill="none" fill-rule="evenodd"><path fill="url(#a)" d="M0 0h80v80H0z"/><path fill="#FFF" d="M62.95 34.806a4.116 4.116 0 0 0-2.07-7.683 4.1 4.1 0 0 0-2.055.553 4.092 4.092 0 0 0-1.924 2.5 4.08 4.08 0 0 0 .412 3.123 4.136 4.136 0 0 0 5.637 1.507Zm2.56 4.21.994 1.719-4.83 2.781-1.204-6.203c-1.96-.137-3.824-1.2-4.879-3.022a6.052 6.052 0 0 1-.611-4.63 6.065 6.065 0 0 1 2.85-3.703 6.08 6.08 0 0 1 4.64-.61 6.07 6.07 0 0 1 3.712 2.843 6.1 6.1 0 0 1-2.238 8.333 6.095 6.095 0 0 1-1.483.612l.634 3.27 2.415-1.39Zm-6.95 12.018a4.102 4.102 0 0 0-3.13-.412 4.098 4.098 0 0 0-2.505 1.919c-.778 1.343-.69 2.938.061 4.182l.855.984-.02.017c.19.161.391.313.614.44.955.55 2.067.696 3.13.412a4.116 4.116 0 0 0 .995-7.542Zm3.232 6.615a6.072 6.072 0 0 1-3.712 2.843 6.086 6.086 0 0 1-4.64-.61 6.018 6.018 0 0 1-1.134-.85l-1.428 1.236 2.415 1.389-.995 1.72-4.833-2.784 3.636-3.143a6.082 6.082 0 0 1 .102-5.901 6.068 6.068 0 0 1 3.712-2.842 6.077 6.077 0 0 1 4.64.609 6.058 6.058 0 0 1 2.848 3.704 6.05 6.05 0 0 1-.61 4.629Zm-21.652 4.25a4.128 4.128 0 0 0-8.253 0 4.127 4.127 0 0 0 8.253 0Zm1.989 0c0 3.364-2.743 6.101-6.116 6.101-3.371 0-6.114-2.737-6.114-6.101 0-.473.058-.932.162-1.374l-2.564-.886v2.99H25.51v-5.777l5.313 1.838a6.112 6.112 0 0 1 11.307 3.209Zm-19.37-15.927a4.098 4.098 0 0 0-2.504-1.919 4.11 4.11 0 0 0-3.13.412 4.09 4.09 0 0 0-1.923 2.5 4.072 4.072 0 0 0 .413 3.123 4.096 4.096 0 0 0 2.504 1.918 4.102 4.102 0 0 0 3.131-.411 4.115 4.115 0 0 0 1.51-5.623Zm-.514 7.34a6.08 6.08 0 0 1-4.64.61 6.072 6.072 0 0 1-3.713-2.842 6.045 6.045 0 0 1-.61-4.63 6.058 6.058 0 0 1 2.848-3.704c.286-.165.584-.298.887-.414L16.4 39.16l-2.404 1.388L13 38.831l4.821-2.784 1.143 5.885c.6-.022 1.209.046 1.805.204a6.074 6.074 0 0 1 3.714 2.844c1.685 2.912.68 6.651-2.238 8.333Zm1.932-30.746a4.131 4.131 0 0 0-5.636 1.507 4.082 4.082 0 0 0-.414 3.124 4.093 4.093 0 0 0 1.924 2.5c.954.55 2.065.697 3.13.41a4.116 4.116 0 0 0 .995-7.542v.001Zm3.187.448a6.093 6.093 0 0 1-3.668 9.01 6.097 6.097 0 0 1-4.64-.61 6.07 6.07 0 0 1-2.85-3.703 6.048 6.048 0 0 1 .612-4.63c1.686-2.913 5.434-3.915 8.353-2.233.33.19.631.41.912.648l2.537-2.199-2.407-1.39.996-1.718 4.816 2.783-4.66 4.042Zm20.092-4.912a4.128 4.128 0 0 0-8.254 0 4.127 4.127 0 0 0 4.127 4.117 4.126 4.126 0 0 0 4.127-4.117Zm6.377 4.597-5.097-1.754a6.121 6.121 0 0 1-5.407 3.258c-3.373 0-6.116-2.737-6.116-6.1 0-3.365 2.743-6.103 6.116-6.103 3.372 0 6.116 2.738 6.116 6.102 0 .327-.033.646-.084.96l2.484.855v-2.545h1.988v5.327Zm-9.829 9.927-1.821-.797-7.006 15.92 1.822.798 7.005-15.921Zm7.56 7.595-5.741-5.594-1.388 1.42 4.08 3.975-4.563 3.416 1.195 1.586 6.417-4.803Zm-18.109 4.045-5.74-5.593 6.417-4.804 1.194 1.587-4.562 3.415 4.079 3.976-1.388 1.42Z"/></g></svg>
